X: 1
T:Belles of Omaha -- Reel
M:C|
L:1/8
R:reel
B:Ryan's Mammoth Collection
N:292
Z:Contributed by Ray Davies,  ray:davies99.freeserve.co.uk
K:G
v(B2{c}B)A BGEF | GABd efge | (B2{c}B)A BGEF | GBAF EFGA |
(B2{c}B)A BGEF | GABd efge | (B2{c}B)A BGEF | GBAF EFGA :|
|:vBde(f {a}g)fgb | agfg edBA | Bde(f {a}g)fgb | agfg efge |
(B2{c}B)A BGEF | GABd efge | \
(B2{c}B)A BGEF |1 GBAF E2B2 :|2 "last"GBAF HE2z2 |]
